!!!COM: Corelli, Arcangelo
!!!OTL: 
!!!ONM: Opus 3, No. 4
!!!OMV: 1
!!!CDT: 1653/2/17/-1713/1/8/
!!!OCY: Italia
**kern	**kern	**kern	**kern
*clefC	*clefC	*clefG	*clefG
*k[f#c#]	*k[f#c#]	*k[f#c#]	*k[f#c#]
*b:	*b:	*b:	*b:
*M4/4	*M4/4	*M4/4	*M4/4
=1	=1	=1	=1
4B	4B	4dd	4ff#
8r	8r	16r	16r
.	.	16dd	16ff#
8BB	8BB	16cc#	16ee
.	.	16b	16dd
8F#	8F#	8a#	8cc#
8E	8E	8b	8dd
8F#	8F#	8.b	8.cc#
8FF#	8FF#	.	.
.	.	16a#	16cc#
=2	=2	=2	=2
8BB	8BB	8b	4b
8B	8B	16dd	.
.	.	16b	.
8A#	8A#	8cc#	8r
8F#	8F#	8f#	16ff#
.	.	.	16cc#
8B	8B	8r	8dd
8BB	8BB	16dd	8b
.	.	16b	.
8AA#	8AA#	8cc#	8r
8FF#	8FF#	8f#	16ff#
.	.	.	16cc#
=3	=3	=3	=3
8BB	8BB	8r	8dd
8AA	8AA	8cc#	4ff#
4GG	4GG	4b	.
.	.	.	8ee
4FF#	4FF#	4a#	4ff#
4r	4r	4r	4r
=4	=4	=4	=4
4d	4d	4ff#	4aa
8r	8r	16r	16r
.	.	16ff#	16aa
8D	8D	16ee	16gg
.	.	16dd	16ff#
8A	8A	8cc#	8ee
8G	8G	8dd	8ff#
8A	8A	8.dd	8.ee
8AA	8AA	.	.
.	.	16cc#	16ee
=5	=5	=5	=5
8D	8D	8dd	4dd
8d	8d	16ff#	.
.	.	16dd	.
8c#	8c#	8ee	8r
8A	8A	8a	16aa
.	.	.	16ee
8d	8d	8r	8ff#
8D	8D	16ff#	8dd
.	.	16dd	.
8C#	8C#	8ee	8r
8AA	8AA	8a	16aa
.	.	.	16ee
=6	=6	=6	=6
8D	8D	8r	8ff#
8C#	8C#	8ee	4aa
8BB	8BB	4dd	.
8E	8E	.	8gg#
4AA	4AA	4cc#	8aa
.	.	.	8ee
8r	8r	4r	8ff#
8A	8A	.	8cc#
=7	=7	=7	=7
8B	8B	8r	8dd
8F#	8F#	8aa	8a
8G	8G	8bb	2dd
8D	8D	8ff#	.
4E	4E	8gg	.
.	.	8b	.
8r	8r	[4ee	4cc#
8AA	8AA	.	.
=8	=8	=8	=8
8D	8D	4ee]	2ff#
8E	8E	.	.
8F#	8F#	4.dd	.
8G	8G	.	.
4.A	4.A	.	4.ee
.	.	16cc#	.
.	.	16b	.
.	.	[4cc#	.
8A#	8A#	.	16ff#
.	.	.	16ee
=9	=9	=9	=9
8B	8B	8cc#]	4dd
8BB	8BB	4b	.
8F#	8F#	.	4cc#
8FF#	8FF#	4a	.
8GG	8GG	.	4b
8G	8G	4g	.
8d	8d	.	4a
8D	8D	8f#	.
=10	=10	=10	=10
4E	4E	8B	4g
.	.	8c#	.
8F#	8F#	2d	8f#
8G	8G	.	8e
8A	8A	.	4f#
8G	8G	.	.
8A	8A	8.d	4e
8AA	8AA	.	.
.	.	16c#	.
=11	=11	=11	=11
4D	4D	4d	8d
.	.	.	8ff#
8r	8r	4.r	8cc#
8B	8B	.	8dd
8F#	8F#	.	8a#
8D	8D	8ff#	8f#
8AA#	8AA#	8cc#	8r
8BB	8BB	8dd	8b
=12	=12	=12	=12
4FF#	4FF#	8a#	4.cc#
.	.	8f#	.
8F#	8F#	4.cc#	.
8E	8E	.	8cc#
4D	4D	.	4.ff#
.	.	8f#	.
8r	8r	[4b	.
8BB	8BB	.	16gg#
.	.	.	16ff#
=13	=13	=13	=13
4C#	4C#	8b]	8ee#
.	.	16cc#	4cc#
.	.	16b	.
8r	8r	8a	.
8AA	8AA	8cc#	16ff#
.	.	.	16cc#
4BB	4BB	8e#	16dd
.	.	.	16cc#
.	.	4f#	16b
.	.	.	16a
4C#	4C#	.	4g#
.	.	8e#	.
=14	=14	=14	=14
4.F#	4.F#	4.f#	8f#
.	.	.	16ff#
.	.	.	16gg#
.	.	.	4.aa
8F#	8F#	8ff#	.
8BB	8BB	8dd#	.
8E	8E	8ee	8gg
8B	8B	8.ee	8.ff#
8BB	8BB	.	.
.	.	16dd#	16ff#
=15	=15	=15	=15
4.E	4.E	4.ee	8gg
.	.	.	16ee
.	.	.	16ff#
.	.	.	4.gg
8E	8E	8ee	.
8AA	8AA	8cc#	.
8D	8D	4dd	8ff#
8A	8A	.	4ee
8A#	8A#	[8cc#	.
=16	=16	=16	=16
8B	8B	8cc#]	4dd
8BB	8BB	4b	.
8F#	8F#	.	4.cc#
8FF#	8FF#	8a#	.
8BB	8BB	[4dd	.
8B	8B	.	8f#
8D	8D	16dd]	16b
.	.	16ff#	16dd
8E	8E	16ee	16cc#
.	.	16dd	16b
=17	=17	=17	=17
4F#	4F#	4cc#	8a#
.	.	.	8ff#
8r	8r	8r	8gg
8BB	8BB	8ff#	8ff#
8E	8E	8gg	8r
8BB	8BB	8ff#	16bb
.	.	.	16dd#
8r	8r	8r	8ee
8BB	8BB	16bb	8dd#
.	.	16dd#	.
=18	=18	=18	=18
8E	8E	8ee	8r
8BB	8BB	8dd#	8ff#
8r	8r	8r	8gg
8BB	8BB	8ff#	8ff#
8E	8E	8gg	8r
8BB	8BB	8ff#	16bb
.	.	.	16dd#
8r	8r	8r	8ee
8BB	8BB	16bb	8ff#
.	.	16dd#	.
=19	=19	=19	=19
4.E	8E	8ee	8gg
.	8F#	8dd	8ff#
.	8G	8.cc#	8.ee
8E	8E	.	.
.	.	16b	16dd
8F#	8F#	8a#	4cc#
8G#	8G#	16g#	.
.	.	16f#	.
8A#	8A#	[4cc#	4r
8F#	8F#	.	.
=20	=20	=20	=20
8B	8B	8cc#]	4.dd
8BB	8BB	16b	.
.	.	16a#	.
8D	8D	2b	.
8BB	8BB	.	16ee
.	.	.	16ff#
8E	8E	.	16gg
.	.	.	16ff#
8C#	8C#	.	16ee
.	.	.	16dd
8F#	8F#	8.b	4cc#
8FF#	8FF#	.	.
.	.	16a#	.
=21	=21	=21	=21
8BB	8BB	4b	4b
8C#	8C#	.	.
8D	8D	4r	4.ff#
8BB	8BB	.	.
4.E	8E	4.gg	.
.	8F#	.	8b
.	8G	.	[4ee
8E	8E	8gg	.
=22	=22	=22	=22
2F#	2F#	4a#	4ee]
.	.	2b	4dd
2FF#	2FF#	.	2cc#
.	.	4a#	.
=23	=23	=23	=23
1BB	1BB	1b	1b
==	==	==	==
*-	*-	*-	*-
!!!RWG: This file only contains pitch and duration data.
!!!RWG: Transposing instruments are not transposed.
!!!RWG: Durations of rests and tied notes may be interpreted.
!!!RWG: Key is interpreted using the Humdrum key tool.
!!!SCA: 
!!!YOR: Chrysander Edition
!!!AGN: chamber
!!!AFT: stage1
!!!ENC: F. Bennion
!!!END: 1997/04/15
!!!AST: baroque
!!!YEC: Copyright 1994, Center for Computer Assisted Research in the Humanities
!!!YEM: Rights to all derivative electronic formats reserved.
!!!YEM: Refer to licensing agreement for further details.
!!!YEN: United States of America
!!!EED: W.B. Hewlett
!!!KEY: 3205865834
!!!EMD: Converted from MuseData to Humdrum Aug 9, 1999, by Bret Aarden using muse2kern.
!!!VTS: 896180060
